app/themes/uggwc_pro/assets/images/thema/Geografie.svg

<svg width="16" height="16" viewBox="0 0 16 16" fill="none" xmlns="http://www.w3.org/2000/svg">
<g clip-path="url(#clip0_111_142)">
<path d="M8 0C3.58161 0 0 3.58161 0 8C0 12.4184 3.58161 16 8 16C12.4184 16 16 12.4184 16 8C16 3.58161 12.4184 0 8 0ZM10.6545 11.5355C10.5287 11.6606 10.3968 11.7919 10.2897 11.8994C10.1932 11.9961 10.1252 12.1155 10.0906 12.2448C10.0419 12.4274 10.0026 12.6119 9.93677 12.789L9.37581 14.3003C8.93194 14.3971 8.47258 14.4516 8 14.4516V13.5684C8.05452 13.1613 7.75355 12.3987 7.27 11.9152C7.07645 11.7216 6.96774 11.459 6.96774 11.1852V10.1526C6.96774 9.7771 6.76548 9.43194 6.43677 9.25032C5.97323 8.99387 5.31387 8.63548 4.86226 8.40806C4.49194 8.22161 4.14935 7.98419 3.84129 7.70645L3.81548 7.68323C3.59518 7.48437 3.39958 7.25974 3.2329 7.01419C2.93032 6.57 2.43742 5.83935 2.1171 5.36452C2.77742 3.89677 3.96742 2.71806 5.44613 2.07774L6.22064 2.46516C6.56387 2.63677 6.96774 2.38742 6.96774 2.00355V1.63903C7.22548 1.59742 7.48774 1.57097 7.75452 1.56097L8.66742 2.47387C8.86903 2.67548 8.86903 3.00226 8.66742 3.20387L8.51613 3.35484L8.18258 3.68839C8.08193 3.78903 8.08193 3.95258 8.18258 4.05323L8.33387 4.20452C8.43452 4.30516 8.43452 4.46871 8.33387 4.56935L8.07581 4.82742C8.02735 4.87578 7.96168 4.90293 7.89323 4.9029H7.60323C7.53613 4.9029 7.47161 4.92903 7.42323 4.97613L7.10323 5.28742C7.064 5.32562 7.03793 5.37529 7.02876 5.42927C7.0196 5.48325 7.02783 5.53874 7.05226 5.58774L7.55516 6.59387C7.64097 6.76548 7.51613 6.96742 7.32452 6.96742H7.14258C7.08032 6.96742 7.02032 6.94484 6.97355 6.90419L6.67419 6.64419C6.60645 6.58543 6.52458 6.5453 6.43663 6.52777C6.34868 6.51023 6.25768 6.5159 6.17258 6.54419L5.1671 6.87935C5.09033 6.90495 5.02357 6.95406 4.97627 7.01971C4.92896 7.08537 4.90352 7.16424 4.90355 7.24516C4.90355 7.39129 4.98613 7.52452 5.11677 7.59L5.47419 7.76871C5.77774 7.92064 6.11258 7.99968 6.45194 7.99968C6.79129 7.99968 7.18064 8.88 7.48419 9.03193H9.63742C9.91129 9.03193 10.1735 9.14064 10.3674 9.33419L10.809 9.77581C10.9935 9.96037 11.0971 10.2107 11.0971 10.4716C11.097 10.6694 11.0579 10.8651 10.9819 11.0477C10.906 11.2303 10.7947 11.396 10.6545 11.5355ZM13.4516 8.58871C13.2648 8.54193 13.1019 8.42742 12.9952 8.2671L12.4152 7.3971C12.3303 7.26999 12.285 7.12058 12.285 6.96774C12.285 6.8149 12.3303 6.6655 12.4152 6.53839L13.0471 5.59064C13.1219 5.47871 13.2245 5.38774 13.3452 5.32774L13.7639 5.11839C14.2 5.98677 14.4516 6.96355 14.4516 8C14.4516 8.27968 14.4277 8.55355 14.3929 8.82387L13.4516 8.58871Z" fill="#6E6CFF"/>
</g>
<defs>
<clipPath id="clip0_111_142">
<rect width="16" height="16" fill="white"/>
</clipPath>
</defs>
</svg>

<svg width="16" height="16" fill="none" xmlns="http://www.w3.org/2000/svg"><g clip-path="url(#a)"><path d="M8 0a8 8 0 1 0 0 16A8 8 0 0 0 8 0zm2.655 11.536-.365.363a.77.77 0 0 0-.2.346c-.048.182-.087.367-.153.544L9.376 14.3A6.445 6.445 0 0 1 8 14.452v-.884c.055-.407-.246-1.17-.73-1.653a1.032 1.032 0 0 1-.302-.73v-1.032c0-.376-.203-.721-.531-.903a53.218 53.218 0 0 0-1.575-.842 4.65 4.65 0 0 1-1.02-.702l-.027-.023a3.703 3.703 0 0 1-.582-.669c-.303-.444-.796-1.175-1.116-1.65a6.487 6.487 0 0 1 3.33-3.286l.774.387a.516.516 0 0 0 .747-.461v-.365c.257-.042.52-.068.787-.078l.912.913a.516.516 0 0 1 0 .73l-.15.15-.334.334c-.101.101-.101.265 0 .365l.15.152c.102.1.102.264 0 .364l-.257.258a.258.258 0 0 1-.183.076h-.29a.258.258 0 0 0-.18.073l-.32.311a.258.258 0 0 0-.05.3l.502 1.007a.258.258 0 0 1-.23.373h-.182a.258.258 0 0 1-.17-.063l-.299-.26a.517.517 0 0 0-.501-.1l-1.006.335a.386.386 0 0 0-.05.711l.357.179c.304.152.639.23.978.23.34 0 .729.881 1.032 1.033h2.153c.274 0 .537.109.73.302l.442.442a.984.984 0 0 1 .288.696 1.5 1.5 0 0 1-.442 1.064zm2.797-2.947a.774.774 0 0 1-.457-.322l-.58-.87a.773.773 0 0 1 0-.859l.632-.947a.773.773 0 0 1 .298-.263l.419-.21c.436.869.688 1.846.688 2.882 0 .28-.024.554-.06.824l-.94-.235z" fill="#6E6CFF"/></g><defs><clipPath id="a"><path fill="#fff" d="M0 0h16v16H0z"/></clipPath></defs></svg>
